src/front_assets/svg/facebook_blue.svg

<?xml version="1.0" encoding="UTF-8"?>
<svg width="50px" height="50px" viewBox="0 0 50 50" version="1.1" xmlns="http://www.w3.org/2000/svg" xmlns:xlink="http://www.w3.org/1999/xlink">
    <!-- Generator: Sketch 62 (91390) - https://sketch.com -->
    <title>EE0D1B08-720F-4C8C-8595-0471744E81B6</title>
    <desc>Created with Sketch.</desc>
    <defs>
        <polygon id="path-1" points="0.0029296875 0.001953125 50 0.001953125 50 49.6962891 0.0029296875 49.6962891"></polygon>
    </defs>
    <g id="Music-Home" stroke="none" stroke-width="1" fill="none" fill-rule="evenodd">
        <g id="Music_home" transform="translate(-1000.000000, -1542.000000)">
            <g id="f_logo_RGB-Blue_1024" transform="translate(1000.000000, 1542.000000)">
                <g id="编组">
                    <mask id="mask-2" fill="white">
                        <use xlink:href="#path-1"></use>
                    </mask>
                    <g id="Clip-2"></g>
                    <path d="M50,25 C50,11.1928711 38.8071289,0 25,0 C11.1928711,0 0,11.1928711 0,25 C0,37.4782227 9.14213867,47.8208008 21.09375,49.6962891 L21.09375,32.2265625 L14.7460938,32.2265625 L14.7460938,25 L21.09375,25 L21.09375,19.4921875 C21.09375,13.2265625 24.8260742,9.765625 30.5366211,9.765625 C33.2718262,9.765625 36.1328125,10.2539062 36.1328125,10.2539062 L36.1328125,16.40625 L32.9803711,16.40625 C29.8747559,16.40625 28.90625,18.3333496 28.90625,20.3104004 L28.90625,25 L35.8398438,25 L34.7314453,32.2265625 L28.90625,32.2265625 L28.90625,49.6962891 C40.8578613,47.8208008 50,37.4782227 50,25" id="Fill-1" fill="#1877F2" mask="url(#mask-2)"></path>
                </g>
                <path d="M34.7314453,32.2265625 L35.8398438,25 L28.90625,25 L28.90625,20.3104004 C28.90625,18.3333496 29.8747559,16.40625 32.9803711,16.40625 L36.1328125,16.40625 L36.1328125,10.2539062 C36.1328125,10.2539062 33.2718262,9.765625 30.5366211,9.765625 C24.8260742,9.765625 21.09375,13.2265625 21.09375,19.4921875 L21.09375,25 L14.7460938,25 L14.7460938,32.2265625 L21.09375,32.2265625 L21.09375,49.6962891 C22.3665527,49.8959961 23.6710937,50 25,50 C26.3289063,50 27.6334473,49.8959961 28.90625,49.6962891 L28.90625,32.2265625 L34.7314453,32.2265625" id="Fill-3" fill="#FFFFFF"></path>
            </g>
        </g>
    </g>
</svg>

<svg xmlns="http://www.w3.org/2000/svg" xmlns:xlink="http://www.w3.org/1999/xlink" width="50" height="50"><defs><path id="a" d="M.003.002H50v49.694H.003z"/></defs><g fill="none" fill-rule="evenodd"><g><mask id="b" fill="#fff"><use xlink:href="#a"/></mask><path fill="#1877F2" d="M50 25C50 11.193 38.807 0 25 0S0 11.193 0 25c0 12.478 9.142 22.82 21.094 24.696v-17.47h-6.348V25h6.348v-5.508c0-6.265 3.732-9.726 9.443-9.726 2.735 0 5.596.488 5.596.488v6.152H32.98c-3.105 0-4.074 1.927-4.074 3.904V25h6.934l-1.109 7.227h-5.825v17.47C40.858 47.82 50 37.477 50 25" mask="url(#b)"/></g><path fill="#FFF" d="M34.731 32.227 35.84 25h-6.934v-4.69c0-1.977.969-3.904 4.074-3.904h3.153v-6.152s-2.861-.488-5.596-.488c-5.71 0-9.443 3.46-9.443 9.726V25h-6.348v7.227h6.348v17.47a25.2 25.2 0 0 0 7.812 0v-17.47z"/></g></svg>
